local/share/icons/dracula-icons-main/scalable/apps/albert.svg

<?xml version="1.0" encoding="UTF-8"?>
<svg xmlns="http://www.w3.org/2000/svg" xmlns:xlink="http://www.w3.org/1999/xlink" width="64" height="64" viewBox="0 0 64 64">
<defs>
<filter id="filter-remove-color" x="0%" y="0%" width="100%" height="100%">
<feColorMatrix color-interpolation-filters="sRGB" values="0 0 0 0 1 0 0 0 0 1 0 0 0 0 1 0 0 0 1 0" />
</filter>
<mask id="mask-0">
<g filter="url(#filter-remove-color)">
<rect x="-6.4" y="-6.4" width="76.8" height="76.8" fill="rgb(0%, 0%, 0%)" fill-opacity="0.1"/>
</g>
</mask>
<clipPath id="clip-0">
<rect x="0" y="0" width="17" height="17"/>
</clipPath>
<g id="source-9623" clip-path="url(#clip-0)">
<path fill-rule="nonzero" fill="rgb(100%, 100%, 100%)" fill-opacity="1" d="M 14.550781 8.460938 C 14.550781 11.820312 11.828125 14.546875 8.464844 14.546875 C 5.105469 14.546875 2.382812 11.820312 2.382812 8.460938 C 2.382812 5.097656 5.105469 2.375 8.464844 2.375 C 11.828125 2.375 14.550781 5.097656 14.550781 8.460938 Z M 14.550781 8.460938 "/>
</g>
</defs>
<path fill-rule="nonzero" fill="rgb(37.254902%, 37.254902%, 37.254902%)" fill-opacity="1" d="M 15.609375 8.460938 C 15.609375 12.40625 12.410156 15.605469 8.464844 15.605469 C 4.519531 15.605469 1.324219 12.40625 1.324219 8.460938 C 1.324219 4.515625 4.519531 1.316406 8.464844 1.316406 C 12.410156 1.316406 15.609375 4.515625 15.609375 8.460938 Z M 15.609375 8.460938 "/>
<g mask="url(#mask-0)">
<use xlink:href="#source-9623"/>
</g>
<path fill-rule="nonzero" fill="rgb(77.254902%, 96.078431%, 20%)" fill-opacity="1" d="M 7.632812 6.027344 C 6.558594 6.023438 5.773438 6.847656 5.269531 7.808594 C 4.617188 9.058594 3.925781 10.910156 5.257812 10.910156 C 6.660156 10.910156 7.828125 10.128906 8.652344 9.542969 C 8.949219 10.085938 9.386719 10.910156 9.992188 10.910156 C 10.601562 10.910156 11.15625 10.667969 11.425781 10.457031 L 12.433594 9.050781 L 12.324219 8.925781 C 11.046875 9.558594 10.613281 9.992188 9.894531 8.625 L 10.800781 7.792969 L 12.132812 6.144531 L 12.035156 6.023438 L 9.636719 8.121094 C 9.25 7.320312 8.453125 6.027344 7.632812 6.023438 M 6.738281 7.0625 C 7.496094 7.0625 7.945312 8.183594 8.390625 9.015625 C 7.730469 9.390625 6.867188 9.851562 6.238281 9.722656 C 5.488281 9.570312 5.296875 8.785156 5.597656 8.195312 C 5.867188 7.644531 6.195312 7.0625 6.734375 7.0625 "/>
</svg>

<svg width="64" height="64" version="1.1" viewBox="0 0 16.933 16.933" xmlns="http://www.w3.org/2000/svg">
 <g>
  <circle cx="8.4665" cy="8.46" r="7.1436" fill="#5f5f5f" style="paint-order:stroke markers fill"/>
  <circle cx="8.4665" cy="8.46" r="6.0853" fill="#fff" opacity=".1" style="paint-order:stroke markers fill"/>
  <path d="m7.6342 6.0254c-1.075-0.00122-1.8606 0.82312-2.3628 1.7833-0.65459 1.2512-1.3452 3.1004-0.01252 3.1004 1.4026 0 2.568-0.77854 3.392-1.3669 0.2989 0.54498 0.73397 1.3669 1.3418 1.3669 0.60787 0 1.162-0.23936 1.4328-0.45247l1.0097-1.4063-0.1093-0.12579c-1.278 0.63321-1.714 1.0686-2.4321-0.29798l0.90647-0.8335 1.3312-1.6478-0.098005-0.12151-2.3952 2.0975c-0.38774-0.80266-1.1843-2.095-2.005-2.096m-0.8967 1.0368c0.76114 0 1.2075 1.1211 1.6554 1.9518-0.66039 0.37553-1.5232 0.83869-2.1555 0.70924-0.74954-0.15357-0.94036-0.93761-0.6384-1.5266 0.26776-0.552 0.59627-1.1339 1.1376-1.1339" fill="#c5f533"/>
 </g>
</svg>
